svg/s/AD.svg

<svg width="16" height="12" viewBox="0 0 16 12" fill="none" xmlns="http://www.w3.org/2000/svg">
<g clip-path="url(#clip0_270_54942)">
<rect width="16" height="12" fill="white"/>
<path fill-rule="evenodd" clip-rule="evenodd" d="M4 0H12V12H4V0Z" fill="#FFD018"/>
<path fill-rule="evenodd" clip-rule="evenodd" d="M0 0H4V12H0V0Z" fill="#2E42A5"/>
<path fill-rule="evenodd" clip-rule="evenodd" d="M12 0H16V12H12V0Z" fill="#E31D1C"/>
<path fill-rule="evenodd" clip-rule="evenodd" d="M4.90002 3.60712C4.90002 3.05206 5.35208 2.6032 5.90712 2.60714L10.3017 2.63832C10.8512 2.64222 11.2947 3.08878 11.2947 3.6383V7.64537C11.2947 7.64537 10.8505 9.64537 8.14899 9.64537C5.44743 9.64537 4.90002 7.6 4.90002 7.6V3.60712Z" fill="#BF9937"/>
<path fill-rule="evenodd" clip-rule="evenodd" d="M5.15002 4.20001C5.56424 4.20001 5.90002 3.86423 5.90002 3.45001C5.90002 3.0358 5.56424 2.70001 5.15002 2.70001C4.73581 2.70001 4.40002 3.0358 4.40002 3.45001C4.40002 3.86423 4.73581 4.20001 5.15002 4.20001Z" fill="#BF9937"/>
<path fill-rule="evenodd" clip-rule="evenodd" d="M5.15002 6.40002C5.56424 6.40002 5.90002 6.06424 5.90002 5.65002C5.90002 5.23581 5.56424 4.90002 5.15002 4.90002C4.73581 4.90002 4.40002 5.23581 4.40002 5.65002C4.40002 6.06424 4.73581 6.40002 5.15002 6.40002Z" fill="#BF9937"/>
<path fill-rule="evenodd" clip-rule="evenodd" d="M5.15002 8.20001C5.56424 8.20001 5.90002 7.86423 5.90002 7.45001C5.90002 7.0358 5.56424 6.70001 5.15002 6.70001C4.73581 6.70001 4.40002 7.0358 4.40002 7.45001C4.40002 7.86423 4.73581 8.20001 5.15002 8.20001Z" fill="#BF9937"/>
<path fill-rule="evenodd" clip-rule="evenodd" d="M10.85 4.20001C11.2642 4.20001 11.6 3.86423 11.6 3.45001C11.6 3.0358 11.2642 2.70001 10.85 2.70001C10.4358 2.70001 10.1 3.0358 10.1 3.45001C10.1 3.86423 10.4358 4.20001 10.85 4.20001Z" fill="#BF9937"/>
<path fill-rule="evenodd" clip-rule="evenodd" d="M10.85 6.40002C11.2642 6.40002 11.6 6.06424 11.6 5.65002C11.6 5.23581 11.2642 4.90002 10.85 4.90002C10.4358 4.90002 10.1 5.23581 10.1 5.65002C10.1 6.06424 10.4358 6.40002 10.85 6.40002Z" fill="#BF9937"/>
<path fill-rule="evenodd" clip-rule="evenodd" d="M10.85 8.20001C11.2642 8.20001 11.6 7.86423 11.6 7.45001C11.6 7.0358 11.2642 6.70001 10.85 6.70001C10.4358 6.70001 10.1 7.0358 10.1 7.45001C10.1 7.86423 10.4358 8.20001 10.85 8.20001Z" fill="#BF9937"/>
<path d="M5.91187 8.33519L5.96441 8.20813C6.56826 8.46697 7.25543 8.59657 8.02636 8.59657C8.7969 8.59657 9.46558 8.4671 10.0328 8.20874L10.0881 8.33458C9.50246 8.60133 8.81505 8.73442 8.02636 8.73442C7.23806 8.73442 6.53308 8.60147 5.91187 8.33519Z" fill="#805440"/>
</g>
<defs>
<clipPath id="clip0_270_54942">
<rect width="16" height="12" fill="white"/>
</clipPath>
</defs>
</svg>

<svg width="16" height="12" fill="none" xmlns="http://www.w3.org/2000/svg">
  <mask id="a" maskUnits="userSpaceOnUse" x="0" y="0" width="16" height="12">
    <path fill="#fff" d="M0 0h16v12H0z"/>
  </mask>
  <g mask="url(#a)">
    <path fill-rule="evenodd" clip-rule="evenodd" d="M4 0h8v12H4V0z" fill="#FFD018"/>
    <path fill-rule="evenodd" clip-rule="evenodd" d="M0 0h4v12H0V0z" fill="#2E42A5"/>
    <path fill-rule="evenodd" clip-rule="evenodd" d="M12 0h4v12h-4V0z" fill="#E31D1C"/>
    <path fill-rule="evenodd" clip-rule="evenodd" d="M4.9 3.607a1 1 0 011.007-1l4.395.031a1 1 0 01.993 1v4.007s-.444 2-3.146 2S4.9 7.6 4.9 7.6V3.607z" fill="#BF9937"/>
    <path fill-rule="evenodd" clip-rule="evenodd" d="M5.15 4.2a.75.75 0 100-1.5.75.75 0 000 1.5zm0 2.2a.75.75 0 100-1.5.75.75 0 000 1.5zm0 1.8a.75.75 0 100-1.5.75.75 0 000 1.5zm5.7-4a.75.75 0 100-1.5.75.75 0 000 1.5zm0 2.2a.75.75 0 100-1.5.75.75 0 000 1.5zm0 1.8a.75.75 0 100-1.5.75.75 0 000 1.5z" fill="#BF9937"/>
    <path d="M5.912 8.335l.052-.127c.604.259 1.291.389 2.062.389.77 0 1.44-.13 2.007-.388l.055.126c-.586.266-1.273.4-2.062.4-.788 0-1.493-.134-2.114-.4z" fill="#805440"/>
    <path fill-rule="evenodd" clip-rule="evenodd" d="M6.115 3.81h3.77v3.514s0 .31-.329.446c-.328.136-.713.087-.713.087s-.37-.08-.564 0a1.65 1.65 0 01-.255.084v.01L8 7.945a.393.393 0 01-.024.004V7.94a1.71 1.71 0 01-.255-.084c-.195-.08-.564 0-.564 0s-.386.049-.713-.087c-.328-.136-.33-.446-.33-.446V3.81z" fill="#BF9937"/>
    <mask id="b" maskUnits="userSpaceOnUse" x="6" y="3" width="4" height="5">
      <path fill-rule="evenodd" clip-rule="evenodd" d="M6.115 3.81h3.77v3.514s0 .31-.329.446c-.328.136-.713.087-.713.087s-.37-.08-.564 0a1.65 1.65 0 01-.255.084v.01L8 7.945a.393.393 0 01-.024.004V7.94a1.71 1.71 0 01-.255-.084c-.195-.08-.564 0-.564 0s-.386.049-.713-.087c-.328-.136-.33-.446-.33-.446V3.81z" fill="#fff"/>
    </mask>
    <g mask="url(#b)">
      <path fill="#D00F3A" d="M6.062 3.765H7.89v1.95H6.062z"/>
      <path fill-rule="evenodd" clip-rule="evenodd" d="M8.093 3.765H9.99v1.95H8.093v-1.95zm0 2.167h1.829v2.022H8.093V5.932z" fill="#FEDF00"/>
      <path fill="#FEDF00" d="M6.062 5.932H7.89v2.022H6.062z"/>
      <path fill-rule="evenodd" clip-rule="evenodd" d="M9.062 7.265a.5.5 0 100-1 .5.5 0 000 1z" fill="#D00F3A"/>
      <path fill-rule="evenodd" clip-rule="evenodd" d="M7.015 5.218V4.104l.47.533-.241.58c-.09-.03-.12.035-.075.153.028.07.05.12.07.158-.08-.08-.113-.132-.113-.186a.21.21 0 00-.015-.095c-.005-.01-.047-.018-.074-.024a.24.24 0 01-.022-.005zm-.22 0l-.242-.581.46-.529v1.114a.188.188 0 01-.021.004c-.024.005-.06.012-.064.021a.21.21 0 00-.015.095c0 .054-.033.105-.114.186.021-.038.043-.089.07-.158.046-.118.015-.183-.074-.152z" fill="#FEDF00"/>
      <path fill="#D00F3A" d="M8.505 4.29h1v1h-1z"/>
      <path fill-rule="evenodd" clip-rule="evenodd" d="M6.562 6.38h1v1h-1v-1z" fill="#D00F3A"/>
    </g>
  </g>
</svg>
